X:188
T:Stone in the Field (reel), The  
B:CRE1.104 (Cloch sa nGarrai)
F:file ID: cre.1/188stone_f
S:John Potts
M:C
L:1/8
Q:180
R:reel
K:Am
A|EAAG ABcd|eaa^f gedB|c3A BGG2|AcBA GED>A|
EAAG ABcd|eaa^f gedB|cBcd e^fge|dBGc A3:|
d|eaag a3b|[ac']2ba gedB|c3A B3G|AcBA GED>d|
eaa2 bagb|age^f gfga|bga^f (3gfe dB|AcBG A3:|

%%%

